X:1
T:Swing Low Sweet Chariot
C:Traditional Spiritual
M:4/4
L:1/4
Q:1/4=72
K:C
!p!!soulful! G, | (C2 E2) | G2 E2 | (D C D E) | C4 |
!mf! z E G G | A2 G2 | (E D C D) | E4 |
!p! G, | (C2 E2) | G2 E2 | (D C D E) | C4 |
!mf! z E G G | (G E D C) | !dim! (D C) C A, | !pp! C4 |]
w: Swing low, sweet char-i-ot, com-in' for to car-ry me home. Swing low, sweet char-i-ot, com-in' for to car-ry me home.
